src/lib/assets/illu_zero-resultats-optimise.svg

<svg version="1.1" id="Слой_1" xmlns="http://www.w3.org/2000/svg" x="0" y="0" viewBox="0 0 273.6 235.4" style="enable-background:new 0 0 273.6 235.4" xml:space="preserve">
    <style>
        .st0,.st1{fill:#fff;stroke:#000;stroke-linecap:round;stroke-linejoin:round;stroke-miterlimit:10}.st1{fill:none}
    </style>
    <g id="Hat_1_">
        <path class="st0" d="M231 114H113.2l28.7-46.9 128.8-34.7z"/>
        <path d="m154 36 2.9-3.6h113.8l-52.4 65.2h-93.4c3.4-5.1-.9-14.3-8.8-12.5-.6.1-1.2.2-1.8.2L154 36z"/>
    </g>
    <g id="Straightedge">
        <path class="st1" d="M148.8 222.1h26.6l-32.2-27.2z"/>
        <path class="st1" d="M144.1 229.4h48.8l-59.1-49.9zm0-16.5H141m1-8.5h-3.2m7 16.8h-3.1"/>
    </g>
    <g id="Noise_18_">
        <path class="st1" d="m183.5 158.7 1.6-2.5m32.5 20-4.1-3.8m12.2 28.1 2.2-2.5M156 119.3l2.8-2.5m-12.5 9-3.1-3.4m4.4 58.5 4.3-3.2"/>
        <circle class="st1" cx="170.1" cy="159" r="2.5"/>
        <path transform="rotate(-54.463 246.68 190.25)" style="fill:none;stroke:#000;stroke-width:1;stroke-linecap:round;stroke-linejoin:round;stroke-miterlimit:9.999" d="M244.2 187.7h5v5h-5z"/>
        <path class="st1" d="m180.4 161.8 4.2 5.6M76.3 214.3l3.3-1.9m-25.4-16.9-1.8-5.1"/>
    </g>
    <g id="Woman_10_">
        <g id="Legs_21_">
            <path class="st0" d="m116.3 184.7-3 34.1c7.8 0 9.3 10.1 9.3 10.1l-33.1.4c.4-3.3 5.9-36.3 5.9-36.3l20.9-8.3z"/>
            <path class="st1" d="m108.5 219.7 4.7-.9m-5-2.3 4.8-.5"/>
            <path class="st0" d="m52.1 177.6-32.6 10.5c3 7.3-5.7 12.6-5.7 12.6L.5 170.4c3.1-.8 35.7-8.7 35.7-8.7l15.9 15.9z"/>
            <path class="st1" d="m16.8 184.2 2.7 3.9m.1-5.4 2.4 4.2"/>
            <path d="M116.5 211.8c7.9-43.1 10.7-110.5 7.4-154.5-.4-5.3-4.1-9.8-9.8-9.8-5 0-10.2 4.5-9.8 9.8 3.3 44.1-4.8 110.1-12.7 153.3l24.9 1.2z"/>
            <path d="M29.8 187.4C83.2 175.5 111.9 115 110 65.8c-.5-12.7-20.2-12.7-19.7 0 1.5 40.3-27.8 85.7-70 98.6 2.3 6.1 7.3 16.9 9.5 23z"/>
        </g>
        <path style="fill:none;stroke:#fff;stroke-linecap:round;stroke-linejoin:round;stroke-miterlimit:10" d="m116 83.3 10.9-14.4"/>
        <g id="Body_23_">
            <linearGradient id="SVGID_1_" gradientUnits="userSpaceOnUse" x1="-845.032" y1="461.449" x2="-866.88" y2="521.476" gradientTransform="matrix(-1 0 0 1 -744.4 -442)">
                <stop offset=".504" style="stop-color:#bfa3fe"/>
                <stop offset="1" style="stop-color:#fff"/>
            </linearGradient>
            <path d="M109.1 35.2 92.8 70.6l33.1-3.8s1.1-6.6 2.4-14c4.4-4.1 3.1-16.8 3.9-19.3l-23.1 1.7z" style="fill:url(#SVGID_1_);stroke:#000;stroke-linecap:round;stroke-linejoin:round;stroke-miterlimit:10"/>
            <path class="st0" d="M130.8 41.1c7.9-3.2 14.6-4.8 23-5.2l2.9-3.6h47.9c-11.8-6.9-25-10.8-38.6-12.1-24.7-2.3-54.8 5.5-70.9 25.6-8.8 11.1-12.5 26.2-6.2 39.4 4 8.5 12.2 14.1 21.1 15.5 4.8 1 22.6 2.9 23.2 1.5.6-1.2-3.2-2.1-4.4-2.4 1.4.3 5.7 1.1 6.2-.2.6-1.6-6.1-3-6.1-3s7.2.7 7.2-.9c0-1.5-.8-2.3-5.9-3.1-7.8-1.3 2-4.7 1.3-6.6-1-2.6-7.8 1.9-15.2.5-15.6-3-15-16.9-13.3-22.2 2-6.1 5.6-10.7 10.1-14.4"/>
            <linearGradient id="SVGID_2_" gradientUnits="userSpaceOnUse" x1="-885.48" y1="455.959" x2="-878.633" y2="528.858" gradientTransform="matrix(-1 0 0 1 -744.4 -442)">
                <stop offset=".183" style="stop-color:#a680ff"/>
                <stop offset="1" style="stop-color:#fffdfd"/>
            </linearGradient>
            <path d="M131 41.2c7.9-3.2 14.6-4.8 23-5.2l2.9-3.6h31.4c.7-2.3 1.2-4.6 1.6-6.9-7.6-2.7-15.6-4.4-23.7-5.2-24.7-2.3-54.8 5.5-70.9 25.6-8.8 11.1-12.5 26.2-6.2 39.4 1.9 4.1 4.8 7.5 8.3 10.1 2.3-5.1 5.1-9.9 8.4-14.5-4.6-5.4-4-13-2.8-16.6 2-6.1 5.6-10.7 10.1-14.4" style="fill:url(#SVGID_2_);stroke:#000;stroke-miterlimit:10"/>
            <path class="st1" d="M185.7 37.3s3.1-4 4.4-10.9M118.5 72s5-32.5 4.2-37"/>
        </g>
        <g id="Head_22_">
            <path class="st0" d="m122.7 34.9 10.9-8.9c4.2 1.5 6.2-2.7 6.2-2.7l1.8-.1s.7-2.8-.6-7.2-8.8-7.4-11.9-1.7c-1.4 2.5-1.8 4.6-1.3 6.4l-10.4 8.2c1.8 2 3.6 4.1 5.3 6z"/>
            <path d="M129.1 14.4c-1.5 2.6-1.8 4.8-1.2 6.6.3.1.6.2.9.2.7.1 3.9-.9 3.1-1.7-1-.9-.4-3 1.2-2.6 2 .5 6.6 1.2 7.6-1.5-1.8-4.1-8.6-6.4-11.6-1z"/>
            <path d="M130.4 15.9c-2.8-4.2-6.1-2.9-9.6 1.4s-10.8-.5-13-4.8S96.6 10.9 96.6 6s6.5-7.5 10.6-5.1 3.7 7.3 12 4.1c8.2-3.3 8 2.9 12.6 8 0 0 1.3 7.1-1.4 2.9z"/>
        </g>
    </g>
    <g id="Papers">
        <path transform="rotate(-22.321 168.502 137.147)" style="fill:none;stroke:#000;stroke-width:1;stroke-linecap:round;stroke-linejoin:round;stroke-miterlimit:10.0006" d="M147.5 121.2h42v31.9h-42z"/>
        <path class="st1" d="m169.2 145.6-6.9-16.8m.8 19.3c-.6-1.4-1.1-2.7-1.7-4.1m-1.9-4.6-3.3-8.1"/>
        <linearGradient id="SVGID_3_" gradientUnits="userSpaceOnUse" x1="-933.85" y1="613.44" x2="-933.85" y2="660.475" gradientTransform="matrix(-1 0 0 1 -744.4 -442)">
            <stop offset=".183" style="stop-color:#a680ff"/>
            <stop offset="1" style="stop-color:#fffdfd"/>
        </linearGradient>
        <path style="fill:url(#SVGID_3_)" d="m173.5 167.7 40.5 11.4-8.7 30.7-40.4-11.4z"/>
        <path class="st1" d="m184.8 195.9 4.9-17.6m-11.2 15.8 4.9-17.6m8.2 21c.2-1 .5-2 .8-3m1.2-4.2c1-3.4 1.9-6.9 2.9-10.3m7 37.7 39.1-15.3 30.5 17.2-39.1 15.3zm44.8 3.2-16.5-8.1m10.4 10.5-16.5-8.1"/>
        <path transform="rotate(-52.019 213.367 133.885)" style="fill:#fff;stroke:#000;stroke-width:1;stroke-linecap:round;stroke-linejoin:round;stroke-miterlimit:9.9998" d="M194.4 108.9h37.9v50h-37.9z"/>
        <path class="st1" d="m205 139.6 13.3-17m-5.7 23 13.3-17.1m-27.1 6.3 13.4-17.1"/>
    </g>
</svg>

<svg version="1.1" id="Слой_1" xmlns="http://www.w3.org/2000/svg" x="0" y="0" viewBox="0 0 273.6 235.4" style="enable-background:new 0 0 273.6 235.4" xml:space="preserve">
    <style>
        .st0,.st1{fill:#fff;stroke:#000;stroke-linecap:round;stroke-linejoin:round;stroke-miterlimit:10}.st1{fill:none}
    </style>
    <g id="Hat_1_">
        <path class="st0" d="M231 114H113.2l28.7-46.9 128.8-34.7z"/>
        <path d="m154 36 2.9-3.6h113.8l-52.4 65.2h-93.4c3.4-5.1-.9-14.3-8.8-12.5-.6.1-1.2.2-1.8.2L154 36z"/>
    </g>
    <g id="Straightedge">
        <path class="st1" d="M148.8 222.1h26.6l-32.2-27.2z"/>
        <path class="st1" d="M144.1 229.4h48.8l-59.1-49.9zM144.1 212.9H141M142 204.4h-3.2M145.8 221.2h-3.1"/>
    </g>
    <g id="Noise_18_">
        <path class="st1" d="m183.5 158.7 1.6-2.5M217.6 176.2l-4.1-3.8M225.7 200.5l2.2-2.5M156 119.3l2.8-2.5M146.3 125.8l-3.1-3.4M147.6 180.9l4.3-3.2"/>
        <circle class="st1" cx="170.1" cy="159" r="2.5"/>
        <path transform="rotate(-54.463 246.68 190.25)" style="fill:none;stroke:#000;stroke-width:1;stroke-linecap:round;stroke-linejoin:round;stroke-miterlimit:9.999" d="M244.2 187.7h5v5h-5z"/>
        <path class="st1" d="m180.4 161.8 4.2 5.6M76.3 214.3l3.3-1.9M54.2 195.5l-1.8-5.1"/>
    </g>
    <g id="Woman_10_">
        <g id="Legs_21_">
            <path class="st0" d="m116.3 184.7-3 34.1c7.8 0 9.3 10.1 9.3 10.1l-33.1.4c.4-3.3 5.9-36.3 5.9-36.3l20.9-8.3z"/>
            <path class="st1" d="m108.5 219.7 4.7-.9M108.2 216.5l4.8-.5"/>
            <path class="st0" d="m52.1 177.6-32.6 10.5c3 7.3-5.7 12.6-5.7 12.6L.5 170.4c3.1-.8 35.7-8.7 35.7-8.7l15.9 15.9z"/>
            <path class="st1" d="m16.8 184.2 2.7 3.9M19.6 182.7l2.4 4.2"/>
            <path d="M116.5 211.8c7.9-43.1 10.7-110.5 7.4-154.5-.4-5.3-4.1-9.8-9.8-9.8-5 0-10.2 4.5-9.8 9.8 3.3 44.1-4.8 110.1-12.7 153.3l24.9 1.2z"/>
            <path d="M29.8 187.4C83.2 175.5 111.9 115 110 65.8c-.5-12.7-20.2-12.7-19.7 0 1.5 40.3-27.8 85.7-70 98.6 2.3 6.1 7.3 16.9 9.5 23z"/>
        </g>
        <path style="fill:none;stroke:#fff;stroke-linecap:round;stroke-linejoin:round;stroke-miterlimit:10" d="m116 83.3 10.9-14.4"/>
        <g id="Body_23_">
            <linearGradient id="SVGID_1_" gradientUnits="userSpaceOnUse" x1="-845.032" y1="461.449" x2="-866.88" y2="521.476" gradientTransform="matrix(-1 0 0 1 -744.4 -442)">
                <stop offset=".504" style="stop-color:#bfa3fe"/>
                <stop offset="1" style="stop-color:#fff"/>
            </linearGradient>
            <path d="M109.1 35.2 92.8 70.6l33.1-3.8s1.1-6.6 2.4-14c4.4-4.1 3.1-16.8 3.9-19.3l-23.1 1.7z" style="fill:url(#SVGID_1_);stroke:#000;stroke-linecap:round;stroke-linejoin:round;stroke-miterlimit:10"/>
            <path class="st0" d="M130.8 41.1c7.9-3.2 14.6-4.8 23-5.2l2.9-3.6h47.9c-11.8-6.9-25-10.8-38.6-12.1-24.7-2.3-54.8 5.5-70.9 25.6-8.8 11.1-12.5 26.2-6.2 39.4 4 8.5 12.2 14.1 21.1 15.5 4.8 1 22.6 2.9 23.2 1.5.6-1.2-3.2-2.1-4.4-2.4 1.4.3 5.7 1.1 6.2-.2.6-1.6-6.1-3-6.1-3s7.2.7 7.2-.9c0-1.5-.8-2.3-5.9-3.1-7.8-1.3 2-4.7 1.3-6.6-1-2.6-7.8 1.9-15.2.5-15.6-3-15-16.9-13.3-22.2 2-6.1 5.6-10.7 10.1-14.4"/>
            <linearGradient id="SVGID_2_" gradientUnits="userSpaceOnUse" x1="-885.48" y1="455.959" x2="-878.633" y2="528.858" gradientTransform="matrix(-1 0 0 1 -744.4 -442)">
                <stop offset=".183" style="stop-color:#a680ff"/>
                <stop offset="1" style="stop-color:#fffdfd"/>
            </linearGradient>
            <path d="M131 41.2c7.9-3.2 14.6-4.8 23-5.2l2.9-3.6h31.4c.7-2.3 1.2-4.6 1.6-6.9-7.6-2.7-15.6-4.4-23.7-5.2-24.7-2.3-54.8 5.5-70.9 25.6-8.8 11.1-12.5 26.2-6.2 39.4 1.9 4.1 4.8 7.5 8.3 10.1 2.3-5.1 5.1-9.9 8.4-14.5-4.6-5.4-4-13-2.8-16.6 2-6.1 5.6-10.7 10.1-14.4" style="fill:url(#SVGID_2_);stroke:#000;stroke-miterlimit:10"/>
            <path class="st1" d="M185.7 37.3s3.1-4 4.4-10.9M118.5 72s5-32.5 4.2-37"/>
        </g>
        <g id="Head_22_">
            <path class="st0" d="m122.7 34.9 10.9-8.9c4.2 1.5 6.2-2.7 6.2-2.7l1.8-.1s.7-2.8-.6-7.2-8.8-7.4-11.9-1.7c-1.4 2.5-1.8 4.6-1.3 6.4l-10.4 8.2c1.8 2 3.6 4.1 5.3 6z"/>
            <path d="M129.1 14.4c-1.5 2.6-1.8 4.8-1.2 6.6.3.1.6.2.9.2.7.1 3.9-.9 3.1-1.7-1-.9-.4-3 1.2-2.6 2 .5 6.6 1.2 7.6-1.5-1.8-4.1-8.6-6.4-11.6-1z"/>
            <path d="M130.4 15.9c-2.8-4.2-6.1-2.9-9.6 1.4s-10.8-.5-13-4.8S96.6 10.9 96.6 6s6.5-7.5 10.6-5.1 3.7 7.3 12 4.1c8.2-3.3 8 2.9 12.6 8 0 0 1.3 7.1-1.4 2.9z"/>
        </g>
    </g>
    <g id="Papers">
        <path transform="rotate(-22.321 168.502 137.147)" style="fill:none;stroke:#000;stroke-width:1;stroke-linecap:round;stroke-linejoin:round;stroke-miterlimit:10.0006" d="M147.5 121.2h42v31.9h-42z"/>
        <path class="st1" d="m169.2 145.6-6.9-16.8M163.1 148.1c-.6-1.4-1.1-2.7-1.7-4.1M159.5 139.4l-3.3-8.1"/>
        <linearGradient id="SVGID_3_" gradientUnits="userSpaceOnUse" x1="-933.85" y1="613.44" x2="-933.85" y2="660.475" gradientTransform="matrix(-1 0 0 1 -744.4 -442)">
            <stop offset=".183" style="stop-color:#a680ff"/>
            <stop offset="1" style="stop-color:#fffdfd"/>
        </linearGradient>
        <path style="fill:url(#SVGID_3_)" d="m173.5 167.7 40.5 11.4-8.7 30.7-40.4-11.4z"/>
        <path class="st1" d="m184.8 195.9 4.9-17.6M178.5 194.1l4.9-17.6M191.6 197.5c.2-1 .5-2 .8-3M193.6 190.3c1-3.4 1.9-6.9 2.9-10.3M203.5 217.7l39.1-15.3 30.5 17.2-39.1 15.3zM248.3 220.9l-16.5-8.1M242.2 223.3l-16.5-8.1"/>
        <path transform="rotate(-52.019 213.367 133.885)" style="fill:#fff;stroke:#000;stroke-width:1;stroke-linecap:round;stroke-linejoin:round;stroke-miterlimit:9.9998" d="M194.4 108.9h37.9v50h-37.9z"/>
        <path class="st1" d="m205 139.6 13.3-17M212.6 145.6l13.3-17.1M198.8 134.8l13.4-17.1"/>
    </g>
</svg>
